static/images/icons/persona.svg

<svg
	width="101"
	height="81"
	viewBox="0 0 101 81"
	fill="none"
	xmlns="http://www.w3.org/2000/svg"
>
	<path
		d="M76.1094 46.4502H69.125C68.8163 46.4502 68.5202 46.5714 68.3019 46.787C68.0836 47.0027 67.9609 47.2952 67.9609 47.6002V74.5562H77.2734V47.6002C77.2734 47.2952 77.1508 47.0027 76.9325 46.787C76.7142 46.5714 76.4181 46.4502 76.1094 46.4502ZM74.9453 72.2562H70.2891V54.7302H74.9453V72.2562ZM74.9453 52.4302H70.2891V48.7502H74.9453V52.4302Z"
		fill="currentColor"
	/>
	<path
		d="M63.3047 74.5562H64.4688V47.6002C64.4688 47.2952 64.3461 47.0027 64.1278 46.787C63.9095 46.5714 63.6134 46.4502 63.3047 46.4502H56.3203C56.0116 46.4502 55.7155 46.5714 55.4972 46.787C55.2789 47.0027 55.1562 47.2952 55.1562 47.6002V74.5562H63.3047ZM57.4844 48.7502H62.1406V64.2062H57.4844V48.7502ZM57.4844 66.5062H62.1406V72.2562H57.4844V66.5062Z"
		fill="currentColor"
	/>
	<path
		d="M88.9141 46.4502H81.9297C81.621 46.4502 81.3249 46.5714 81.1066 46.787C80.8883 47.0027 80.7656 47.2952 80.7656 47.6002V59.3532V74.5562H90.0781V73.5212C90.0781 73.5212 90.0781 73.5212 90.0781 73.4062V47.6002C90.0781 47.2952 89.9555 47.0027 89.7372 46.787C89.5189 46.5714 89.2228 46.4502 88.9141 46.4502ZM87.75 72.2562H83.0938V61.6532H87.75V72.2562ZM87.75 59.3532H83.0938V48.7502H87.75V59.3532Z"
		fill="currentColor"
	/>
	<path
		d="M27.9638 41.3438C30.4042 41.3347 32.7871 40.6109 34.8111 39.2638C36.8351 37.9168 38.4094 36.0071 39.3347 33.7762C40.2601 31.5453 40.4951 29.0934 40.01 26.7306C39.5248 24.3678 38.3414 22.2001 36.6092 20.5018C34.8771 18.8034 32.6741 17.6506 30.2788 17.1892C27.8834 16.7278 25.4034 16.9784 23.1523 17.9094C20.9012 18.8405 18.98 20.4101 17.6319 22.4197C16.2837 24.4294 15.569 26.7889 15.5782 29.1998C15.5967 32.4309 16.9105 35.5231 19.2319 37.7992C21.5533 40.0754 24.6932 41.3499 27.9638 41.3438V41.3438ZM27.9638 19.2638C29.9398 19.2729 31.8689 19.8595 33.508 20.9497C35.1472 22.0399 36.423 23.585 37.175 25.3903C37.9269 27.1955 38.1212 29.1803 37.7335 31.0944C37.3457 33.0086 36.3932 34.7666 34.996 36.147C33.5987 37.5273 31.8192 38.4683 29.8816 38.8514C27.9441 39.2345 25.9351 39.0425 24.1077 38.2997C22.2804 37.5568 20.7164 36.2963 19.6129 34.677C18.5093 33.0577 17.9155 31.1519 17.9063 29.1998C17.9033 27.8941 18.1613 26.6007 18.6657 25.3939C19.17 24.187 19.9107 23.0905 20.8453 22.1672C21.7798 21.244 22.8898 20.5122 24.1114 20.0139C25.333 19.5157 26.6422 19.2608 27.9638 19.2638Z"
		fill="currentColor"
	/>
	<path
		d="M9.2688 74.5102H46.5188C46.8275 74.5102 47.1236 74.389 47.3419 74.1734C47.5602 73.9577 47.6829 73.6652 47.6829 73.3602V66.0002C47.6829 60.8152 45.598 55.8426 41.8868 52.1763C38.1756 48.5099 33.1422 46.4502 27.8938 46.4502C22.6454 46.4502 17.612 48.5099 13.9008 52.1763C10.1897 55.8426 8.10474 60.8152 8.10474 66.0002V73.3602C8.10474 73.6652 8.22738 73.9577 8.44568 74.1734C8.66399 74.389 8.96007 74.5102 9.2688 74.5102ZM10.4329 66.0002C10.4329 61.4252 12.2725 57.0376 15.5471 53.8026C18.8216 50.5676 23.2629 48.7502 27.8938 48.7502C32.5247 48.7502 36.966 50.5676 40.2406 53.8026C43.5151 57.0376 45.3547 61.4252 45.3547 66.0002V72.2102H10.4329V66.0002Z"
		fill="currentColor"
	/>
	<path
		d="M99.3906 0.533203H1.60938C1.30065 0.533203 1.00456 0.654365 0.786258 0.870032C0.567954 1.0857 0.445312 1.3782 0.445312 1.6832V78.9632C0.445312 79.2682 0.567954 79.5607 0.786258 79.7764C1.00456 79.9921 1.30065 80.1132 1.60938 80.1132H99.3906C99.6994 80.1132 99.9954 79.9921 100.214 79.7764C100.432 79.5607 100.555 79.2682 100.555 78.9632V1.6832C100.555 1.3782 100.432 1.0857 100.214 0.870032C99.9954 0.654365 99.6994 0.533203 99.3906 0.533203ZM98.2266 77.8132H2.77344V2.8332H98.2266V77.8132Z"
		fill="currentColor"
	/>
	<path
		d="M58.6484 19.31H63.3047C63.6134 19.31 63.9095 19.1889 64.1278 18.9732C64.3461 18.7575 64.4688 18.465 64.4688 18.16C64.4688 17.855 64.3461 17.5625 64.1278 17.3468C63.9095 17.1312 63.6134 17.01 63.3047 17.01H58.6484C58.3397 17.01 58.0436 17.1312 57.8253 17.3468C57.607 17.5625 57.4844 17.855 57.4844 18.16C57.4844 18.465 57.607 18.7575 57.8253 18.9732C58.0436 19.1889 58.3397 19.31 58.6484 19.31Z"
		fill="currentColor"
	/>
	<path
		d="M69.125 19.31H85.4219C85.7306 19.31 86.0267 19.1889 86.245 18.9732C86.4633 18.7575 86.5859 18.465 86.5859 18.16C86.5859 17.855 86.4633 17.5625 86.245 17.3468C86.0267 17.1312 85.7306 17.01 85.4219 17.01H69.125C68.8163 17.01 68.5202 17.1312 68.3019 17.3468C68.0836 17.5625 67.9609 17.855 67.9609 18.16C67.9609 18.465 68.0836 18.7575 68.3019 18.9732C68.5202 19.1889 68.8163 19.31 69.125 19.31Z"
		fill="currentColor"
	/>
	<path
		d="M56.3203 26.187H88.9141C89.2228 26.187 89.5189 26.0658 89.7372 25.8501C89.9555 25.6345 90.0781 25.342 90.0781 25.037C90.0781 24.732 89.9555 24.4395 89.7372 24.2238C89.5189 24.0081 89.2228 23.887 88.9141 23.887H56.3203C56.0116 23.887 55.7155 24.0081 55.4972 24.2238C55.2789 24.4395 55.1562 24.732 55.1562 25.037C55.1562 25.342 55.2789 25.6345 55.4972 25.8501C55.7155 26.0658 56.0116 26.187 56.3203 26.187Z"
		fill="currentColor"
	/>
	<path
		d="M56.3203 33.1101H86.5859C86.8947 33.1101 87.1908 32.9889 87.4091 32.7732C87.6274 32.5576 87.75 32.2651 87.75 31.9601C87.75 31.6551 87.6274 31.3625 87.4091 31.1469C87.1908 30.9312 86.8947 30.8101 86.5859 30.8101H56.3203C56.0116 30.8101 55.7155 30.9312 55.4972 31.1469C55.2789 31.3625 55.1562 31.6551 55.1562 31.9601C55.1562 32.2651 55.2789 32.5576 55.4972 32.7732C55.7155 32.9889 56.0116 33.1101 56.3203 33.1101Z"
		fill="currentColor"
	/>
	<path
		d="M56.3203 40.0099H79.6016C79.9103 40.0099 80.2064 39.8888 80.4247 39.6731C80.643 39.4574 80.7656 39.1649 80.7656 38.86C80.7656 38.555 80.643 38.2624 80.4247 38.0468C80.2064 37.8311 79.9103 37.71 79.6016 37.71H56.3203C56.0116 37.71 55.7155 37.8311 55.4972 38.0468C55.2789 38.2624 55.1562 38.555 55.1562 38.86C55.1562 39.1649 55.2789 39.4574 55.4972 39.6731C55.7155 39.8888 56.0116 40.0099 56.3203 40.0099Z"
		fill="currentColor"
	/>
</svg>

<svg xmlns="http://www.w3.org/2000/svg" fill="currentColor" viewBox="0 0 101 81">
	<path d="M76.11 46.45h-6.985c-.309 0-.605.121-.823.337a1.143 1.143 0 00-.341.813v26.956h9.312V47.6c0-.305-.122-.597-.34-.813a1.172 1.172 0 00-.824-.337zm-1.165 25.806H70.29V54.73h4.656v17.526zm0-19.826H70.29v-3.68h4.656v3.68zM63.305 74.556h1.164V47.6c0-.305-.123-.597-.341-.813a1.172 1.172 0 00-.823-.337H56.32c-.308 0-.605.121-.823.337a1.143 1.143 0 00-.34.813v26.956h8.148zm-5.82-25.806h4.656v15.456h-4.657V48.75zm0 17.756h4.656v5.75h-4.657v-5.75zM88.914 46.45H81.93c-.309 0-.605.121-.823.337a1.143 1.143 0 00-.341.813v26.956h9.312v-1.035V47.6c0-.305-.123-.597-.34-.813a1.172 1.172 0 00-.824-.337zM87.75 72.256h-4.656V61.653h4.656v10.603zm0-12.903h-4.656V48.75h4.656v10.603zM27.964 41.344c2.44-.01 4.823-.733 6.847-2.08a12.22 12.22 0 004.524-5.488c.925-2.23 1.16-4.683.675-7.045a12.146 12.146 0 00-3.4-6.23 12.387 12.387 0 00-6.331-3.312 12.48 12.48 0 00-7.127.72 12.307 12.307 0 00-5.52 4.51 12.085 12.085 0 00-2.054 6.78 12.14 12.14 0 003.654 8.6 12.44 12.44 0 008.732 3.545zm0-22.08c1.976.009 3.905.596 5.544 1.686a9.916 9.916 0 013.667 4.44 9.78 9.78 0 01.559 5.704 9.855 9.855 0 01-2.738 5.053 10.05 10.05 0 01-5.114 2.704 10.125 10.125 0 01-5.774-.551 9.987 9.987 0 01-4.495-3.623 9.805 9.805 0 01-1.707-5.477 9.809 9.809 0 01.76-3.806 9.904 9.904 0 012.18-3.227 10.045 10.045 0 013.265-2.153 10.142 10.142 0 013.853-.75zM9.269 74.51h37.25c.309 0 .605-.121.823-.337.218-.215.34-.508.34-.813V66a19.43 19.43 0 00-5.795-13.824 19.912 19.912 0 00-13.993-5.726A19.912 19.912 0 0013.9 52.176 19.431 19.431 0 008.105 66v7.36c0 .305.122.598.34.813.219.216.515.337.824.337zM10.433 66c0-4.575 1.84-8.962 5.114-12.197a17.57 17.57 0 0112.347-5.053 17.57 17.57 0 0112.347 5.053A17.145 17.145 0 0145.355 66v6.21H10.433V66z"/>
	<path d="M99.39.533H1.61c-.31 0-.605.121-.824.337-.218.216-.34.508-.34.813v77.28c0 .305.122.598.34.813.219.216.515.337.823.337h97.782c.308 0 .604-.12.823-.337.218-.215.341-.508.341-.813V1.683c0-.305-.123-.597-.341-.813a1.172 1.172 0 00-.823-.337zm-1.163 77.28H2.773V2.833h95.454v74.98z"/>
	<path d="M58.648 19.31h4.657c.308 0 .605-.121.823-.337a1.143 1.143 0 000-1.626 1.172 1.172 0 00-.823-.337h-4.657c-.308 0-.604.121-.823.337a1.143 1.143 0 000 1.626c.219.216.515.337.823.337zM69.125 19.31h16.297c.309 0 .605-.121.823-.337a1.143 1.143 0 000-1.626 1.172 1.172 0 00-.823-.337H69.125c-.309 0-.605.121-.823.337a1.143 1.143 0 000 1.626c.218.216.514.337.823.337zM56.32 26.187h32.594c.309 0 .605-.121.823-.337a1.143 1.143 0 000-1.626 1.171 1.171 0 00-.823-.337H56.32c-.308 0-.605.121-.823.337a1.143 1.143 0 000 1.626c.218.216.515.337.823.337zM56.32 33.11h30.266c.309 0 .605-.121.823-.337a1.143 1.143 0 000-1.626 1.171 1.171 0 00-.823-.337H56.32c-.308 0-.605.121-.823.337a1.143 1.143 0 000 1.626c.218.216.515.337.823.337zM56.32 40.01h23.282c.308 0 .604-.121.823-.337a1.143 1.143 0 000-1.626 1.171 1.171 0 00-.823-.337H56.32c-.308 0-.605.121-.823.337a1.143 1.143 0 000 1.626c.218.216.515.337.823.337z"/>
</svg>
